!!!!SEGMENT: pl-wtm--iii-41-945--001-002_mlynarski-emil--concerto-pour-violon-op-11-ii-adagio.krn
!!!cenid: 18xx:4273
!!!COM: Młynarski, Emil
!!!COM-rismID: pe50043899
!!!CDT: 1870/07/18-1935/04/05
!!!CNT: Polish
!!!OPR: Concerto pour Violon op. 11
!!!OTL: II. Adagio
!!!OMV: 002
!!!PDT: 1899
!!!AGN:
!!!YEC: Copyright 2022 Narodowy Instytut Fryderyka Chopina (https://polishscores.org)
!!!YEM: License CC-BY-4.0 (https://creativecommons.org/licenses/by/4.0)
!!!SMS-siglum: PL-Wtm
!!!SMS-shelfmark: III.41.945
!!!SMS-shelfwork: 001-002 M
!!!SMS-variant:
!!!SMS-altvar:
!!!NIFC-rismSourceID: 1001152236
!!!NIFC-rismChildID: 1001152236
!!!NIFC-islandoraID: pl-wtm:22924
!!!URL-pdf-islandora: https://repozytorium.nifc.pl/islandora/object/pl-wtm:22924/datastream/PDF/view
!!!URL-scan: https://polish.musicsources.pl/pl/lokalizacje/galeria/druki-muzyczne/17788/8 @EN{Scan on Polish Music Sources Website (Piano)} @PL{Skany w portalu Dziedzictwo Muzyki Polskiej w otwartym dostępie (Fortepian)}
!!!URL-scan: https://polish.musicsources.pl/pl/lokalizacje/galeria/druki-muzyczne/17788-concerto/19 @EN{Scan on Polish Music Sources Website (Violin)} @PL{Skany w portalu Dziedzictwo Muzyki Polskiej w otwartym dostępie (Skrzypce)}
!!!IIIF:
!!!ONB-nifc: UWAGA: Partię skrzypiec należy wpisać na podstawie głosu skrzypiec, a nie linii pomocniczej w partii fortepianu. Fortepian: skany 0008-0010; Skrzypce: skany 0019-0020
!!!OMD:
!!!OMD-mod: Adagio [eighth] = 58.
!!!AIN: 2 piano 1 violn
!!!key: B-
**kern	**kern	**dynam	**kern	**dynam
*part3	*part2	*	*part1	*
*staff3	*staff2	*	*staff1	*
*I"PIANO.	*I"PIANO.	*	*I"VIOLON.	*
*I'	*I'	*	*I'	*
*Ipiano	*Ipiano	*	*Ivioln	*
*ICklav	*ICklav	*	*ICstr	*
*IGacmp	*IGacmp	*	*IGsolo	*
*clefF4	*clefG2	*	*clefG2	*
*k[b-e-]	*k[b-e-]	*	*k[b-e-]	*
*B-:	*B-:	*	*B-:	*
*M3/8	*M3/8	*	*M3/8	*
=1	=1	=1	=1	=1
!	!LO:TX:a:B:t=Adagio. [eighth] = 58.:mod=	!	!LO:TX:a:t=Adagio. [eighth] = 58.:mod=	!
!	!	!	!LO:TX:b:t=8	!
!	!	!	!LO:N:vis=00	!
4r	(>8g 8e- (8B-/	p	1.r	.
.	4e- 4c 4A/)	.	.	.
8AA/	.	.	.	.
=2	=2	=2	=2	=2
8D\	(8f 8d 8A/	.	.	.
8r	4d 4A 4F/)	.	.	.
[8D\	.	.	.	.
=3	=3	=3	=3	=3
*^	*^	*	*	*
8D/L]	4GG\	(16B-/LL	4G\	<	.	.
.	.	16c/	.	.	.	.
8C/	.	16d/	.	.	.	.
.	.	16e-/J)	.	[[	.	.
8E-/J	8FF\	8c/J	8A 8F\	.	.	.
=4	=4	=4	=4	=4	=4	=4
(8E-/L	4BB-\	(8e-/L	4B- 4F\	>	.	.
8D/J)	.	8d/)	.	.	.	.
8D 8DD/	8ryy	8f/J	8B- 8F\	]	.	.
*v	*v	*	*	*	*	*
*	*v	*v	*	*	*
=5	=5	=5	=5	=5
!	!	!	!LO:N:vis=00	!
8E- 8EE-/	8g 8e- 8B- 8G/	.	1.r	.
4D 4DD^/	4a 4f#X 4d 4A^/	.	.	.
=6	=6	=6	=6	=6
!	!LO:TX:b:t=cre-scen-do:ext=ud:problem:text with extention lines	!	!	!
8D 8DD/	8a 8f#X 8d 8A/	<	.	.
4GG 4GGG^>/	4b- 4g 4d 4B-/	.	.	.
=7	=7	=7	=7	=7
*	*^	*	*	*
4.FFn 4.FFFn/	8b- 8fn 8d 8B-/	8ryy	.	.	.
.	(8b-/L	4cc 4f 4c^>\	.	.	.
.	16.a/L	.	.	.	.
.	32b-/JJk)	.	[[	.	.
*	*v	*v	*	*	*
!LO:LB:g=original	!	!	!	!
=8	=8	=8	=8	=8
(8BB-L 8BBB-/	4b- 4f 4d/)	mf	.	.
8F/	.	.	.	.
8B-/J)	8r	.	.	.
=9	=9	=9	=9	=9
!	!	!	!LO:TX:b:i:t=espressivo	!
4E-\	(>4g 4e- 4B-/	p	8gg\L	mp
.	.	.	(8.ee-\	.
8C/	8g 8e- 8A/	.	.	.
.	.	.	16ff\Jk)	.
=10	=10	=10	=10	=10
(8D\L	8fL 8d 8A/	.	(8ff\	.
8En\	8g 8d 8A/	.	4dd\)	.
8F\J)	8aJ 8d 8A/	.	.	.
=11	=11	=11	=11	=11
(8.GL 8.GG/	8.b-L 8.d 8.B-/	<	(16b-\LL	<
.	.	.	16cc\	.
.	.	.	16dd\	.
16G-XK 16GG-X/	16b-K 16e- 16B-/	[[	16ee-\J	[
8FJ 8FF/)	8aJ 8f 8e- 8A/)	.	8cc\J)	.
=12	=12	=12	=12	=12
4BB- 4FF 4BBB-/	(>8aL 8f 8e- 8A/	>	(8ee-\L	>
.	8b- 8f 8d 8B-/	.	8.dd\)	]]
8BB- 8BBB-/	[8b-:J [8f#X: [8d: [8A-X:/	]	.	.
.	.	.	([16ff#X\Jk	.
!	!	!	!LO:LB:g=original	!
=13	=13	=13	=13	=13
4EE- 4EEE-/	8b-]L 8f#] 8d] 8A-/]	.	16ff#\LL]	.
.	.	.	16gg\J)	.
.	8b- 8e- 8G/	.	8.gg\	.
!	!LO:TX:b:t=cre-scen-do:ext=ud:problem:text with extention lines	!	!	!
8EE- 8EEE-/	8ccJ 8an 8g 8c/	<	.	.
.	.	.	([16aa\Jk	<
=14	=14	=14	=14	=14
8DD 8DDD/	8ddL 8f#X 8c/	.	16aa\LL]	.
.	.	.	16bb-\J)	.
4GG 4GGG/	8dd 8g 8B-/	.	8.bb-\	.
.	8eenJ 8dd 8b- 8en/	.	.	.
.	.	.	(16ccc\Jk	.
=15	=15	=15	=15	=15
*^	*	*	*	*
8FF 8FFF/	8ryy	8ffL 8dd 8b- 8f/	[	8ddd\L)	.
(8d/L	4F\	8b- 8f/	.	(8bb-\	.
8e-/J)	.	8aJ 8f/	.	8ccc\J)	.
*v	*v	*	*	*	*
!LO:LB:g=original	!	!	!	!
=16	=16	=16	=16	=16
[8dL [8B-\	[8b-L [8f/)	mp	4bb-\	mf >
16d]L 16B-\]	16b-]L 16f/]	>	.	.
16d\	16b- 16f/	.	.	.
16f\	16cc#X 16a/	]]	8r	.
16b->\JJ	16dd 16b-/JJ	.	.	]]
!!LO:TX:t=P:problem:w źródle rehearsal marks tylko jako litery:global
!!LO:REH:t=A
=17	=17	=17	=17	=17
*	*	*^	*	*
!	!	!	!LO:DY:b=2	!	!
8g\L	(16ddLL 16b-~\	p	mf	8dd~\L	p
!	!LO:TX:b:i:t=espr.	!	!	!	!
.	16dd 16b-~\	.	.	.	.
(8.g\	16dd 16b-~\	.	.	(8.een^\	.
.	16ddJ 16b-~\)	.	.	.	.
.	8ddJ 8b-~\	.	.	.	.
16g~\Jk)	.	.	.	16ee~\Jk)	.
*	*	*v	*v	*	*
=18	=18	=18	=18	=18
8fT\L	(16ddLL 16b-~\	.	8ff~\L	.
.	16dd 16b-~\	.	.	.
8.en^\	16dd 16b-~\	.	(8.gg^\	.
.	16ddJ 16b-~\)	.	.	.
.	8ddJ 8b-~\	.	.	.
!	!	!LO:HP:b=2	!	!
(16e\Jk	.	<	16gg~\Jk)	.
!	!	!	!LO:LB:g=original	!
=19	=19	=19	=19	=19
8a\L	(16ddLL 16b-~\	[[	([8dd\L	<
.	16ddJ 16b-~\)	.	.	.
!	!	!LO:HP:b=2	!	!
.	.	>	.	.
8g\	8dd 8b-~\	.	16dd\L]	.
.	.	.	16een\	.
8f\J	8ddJ 8b-~\	.	16ff\	.
.	.	.	16aa\JJ)	[
=20	=20	=20	=20	=20
4en\)	(16ddLL 16b-~\	]	4gg\	>
.	16ddJ 16b-~\)	.	.	.
.	8dd 8b-\	.	.	]]
8r	(16ccL 16b-\	.	8r	.
.	16ccJJ 16b-\)	.	.	.
*clefG2	*	*	*	*
=21	=21	=21	=21	=21
!	!LO:TX:b:t=poco-a-poco-cre-scen-do-:ext=ud:problem:text with extention lines	!	!LO:TX:b:t=poco-a-poco-cresc.:ext=s:problem:text with extention lines	!
8b-\L	(16ffLL 16dd-X~\	<	8ff~\L	<
.	16ff 16dd-~\	.	.	.
(8.b-^\	16ee- 16dd-~\	.	(8.gg^\	.
.	16ee-J 16dd-~\)	.	.	.
.	8ee-J 8dd-~\	.	.	.
16b-~\Jk)	.	.	16gg~\Jk)	.
!LO:LB:g=original	!	!	!	!
=22	=22	=22	=22	=22
8a-XT/L	(16ee-LL 16dd-X~\	.	8aa-X~\L	.
.	16ee- 16dd-~\	.	.	.
8.g^/	16ee- 16dd-~\	.	(8.bb-^\	.
.	16ee-J 16dd-~\)	.	.	.
.	8ee-J 8dd-~\	.	.	.
(16g/Jk	.	.	16bb-~\Jk)	.
=23	=23	=23	=23	=23
8cc/L	(16ee-LL 16dd-X~\	.	([8ff\L	.
.	16ee-J 16dd-~\)	.	.	.
8b-/	8ee-\	.	16ff\L]	[
.	.	.	16gg\	.
8a-X/J)	8ee-J 8dd-\	.	16aa-X\	.
.	.	.	16ccc\JJ)	.
=24	=24	=24	=24	=24
8g/L	(16ee-LL 16dd-X 16b-~\	.	[4bb-\	.
.	16ee-J 16b-~\)	.	.	.
8f/	8ee- 8dd- 8a-X~\	.	.	.
8e-/J	(16ee-L 16dd- 16g~\	.	16bb-\LL]	.
.	16ee-JJ 16dd- 16g~\)	.	[16gg\JJ	.
!	!	!	!LO:LB:g=original	!
=25	=25	=25	=25	=25
8dn/L	(16ffLL 16bn 16g~\	.	8.gg\L]	.
.	16ff 16b 16g~\	.	.	.
8c/	16ff 16cc 16g~\	.	.	.
.	16ff 16cc 16g~\	.	(16aa\L	.
8Bn/J	16ff 16dd 16g~\	.	16bbn\	.
.	16ffJJ 16dd 16g~\)	.	16ddd\JJ)	.
*clefF4	*	*	*	*
=26	=26	=26	=26	=26
8aL 8A\	(16ffLL 16cc 16f~\	.	[4ccc\	.
.	16ff 16cc 16f~\	.	.	.
8g 8G\	16een 16cc 16en~\	.	.	.
.	16ee 16cc 16e~\	.	.	.
8fJ 8F\	16dd 16cc 16d~\	.	16ccc\LL]	.
.	16ddJJ 16cc 16d~\)	.	[16ccc\JJ	.
=27	=27	=27	=27	=27
8enL 8G 8En\	(16ggLL 16cc 16g~\	.	8.ccc\L]	.
.	16gg 16cc 16g~\	.	.	.
8d 8G 8D\	16ff 16cc 16f~\	.	.	.
.	16ff 16cc 16f~\	.	16ddd~\L	.
8cJ 8G 8C\	16een 16cc 16en~\	.	16eeen~\	.
.	16eeJJ 16cc 16e~\)	[[	16aaa~\JJ	.
!LO:PB:g=original	!	!	!	!
=28	=28	=28	=28	=28
8B-L 8C 8BB-\	(16cccLL 16gg 16een 16cc~\	.	8.ggg\L	.
.	16ccc 16gg 16ee 16cc~\	.	.	.
8A 8C 8AA\	16ccc 16aa 16ff 16cc~\	.	.	.
.	16ccc 16aa 16ff 16cc~\	.	16aaa\L	.
8GJ 8C 8GG\	16ccc 16bb- 16ee 16cc~\	.	16bbb-\	.
.	16cccJJ 16bb- 16ee 16cc~\)	.	16cccc\JJ	.
=29	=29	=29	=29	=29
16FFLL 16FFF\	(16cccLL 16bb- 16ff 16cc~\	f	8bbb-L 8bb-\	ff
16g 16G\	16ccc 16bb- 16ff 16cc~\	.	.	.
16a 16f 16e- 16A\	16ccc 16aa 16ff 16cc~\	.	(8.aaa 8.aa^\	.
16a 16f 16e- 16A\	16ccc 16aa 16ff 16cc~\	.	.	.
16a 16f 16e- 16A\	16ccc 16aa 16ff 16cc~\	.	.	.
16aJJ 16f 16e- 16A\	16ccc#XJJ 16aa 16ff 16cc#X~\)	.	16aaaJk 16aa~\)	.
=30	=30	=30	=30	=30
16FFLL 16FFF'/	(16ccc#XLL 16aa 16ff 16cc#X~\	.	8gggL 8gg\	.
*clefG2	*	*	*	*
(16b- 16f 16d~/	16ddd 16bb- 16ff 16dd~\	.	.	.
16b- 16f 16d~/	16ddd 16bb- 16ff 16dd~\	.	(8.fff 8.ff^\	.
16b- 16f~/	16ddd 16ff 16dd~\	.	.	.
16a 16e-~/	16cccn 16ff 16ccn~\	.	.	.
16fJJ 16d~/)	16bb-JJ 16ff 16b-~\)	.	16fffJk 16ff~\)	.
*clefF4	*	*	*	*
!	!	!	!LO:LB:g=original	!
=31	=31	=31	=31	=31
!	!	!LO:DY:a=2	!	!LO:DY:b:rj
(32FFLLL 32FFF\	16bbnKL 16ff 16dd 16bn\	sf	[8aaa-XL [8aa-X\	sf >
32D\	.	.	.	.
32F\	8bb 8ff 8dd 8b\	.	.	.
32A-X\	.	.	.	.
32Bn\	.	.	16aaa-]L 16aa-\]	.
32d\	.	.	.	.
32f\	8bb 8ff 8dd 8b\	.	16fff 16ff^\	.
32a-X\JJJ	.	.	.	.
16bn\)	.	.	16eee- 16ee-^\	]]
16r	16bbJk 16ff 16dd 16b\	.	16dddJJ 16dd^\	.
=32	=32	=32	=32	=32
!	!	!LO:DY:a=2	!	!LO:DY:b:rj
(32FFLLL 32FFF\	16cccKL 16gg 16ee- 16cc\	sf	[8gggL [8gg\	sf >
32C\	.	.	.	.
32E-\	8ccc 8gg 8ee- 8cc\	.	.	.
32F#X\	.	.	.	.
32G\	.	.	16ggg]L 16gg\]	.
32c\	.	.	.	.
32e-\	8ccc 8gg 8ee- 8cc\	.	16eee- 16ee-^\	]]
32f#X\JJJ	.	.	.	.
16g\LL	.	.	16ddd 16dd^\	.
16a\JJ)	16cccJk 16ff 16ee-\	.	16cccJJ 16cc^\	.
!LO:LB:g=original	!	!	!	!
=33	=33	=33	=33	=33
!	!	!LO:DY:a=2	!	!LO:DY:b:rj
(32FFLLL 32FFF\	16bb-XKL 16ff 16dd 16b-X\	sf	[8fffL [8ff\	sf
32D\	.	.	.	>
32F\	8bb- 8ff 8dd 8b-\	.	.	.
32A\	.	.	.	.
32B-\	.	.	16fff]L 16ff\]	.
32c#X\	.	.	.	.
32d\	8bb- 8ff 8dd 8b-\	.	16ddd 16dd^\	.
32en\JJJ	.	.	.	]]
16f\LL	.	.	16ccc 16cc^\	.
16g\JJ)	16bb-Jk 16dd 16b-\	.	16bb-JJ 16b-^\	.
=34	=34	=34	=34	=34
*	*^	*	*	*
(16gKL 16c\	(16bb-KL 16ee- 16b-\	4ryy	.	16eee-LL 16ee-'\	>
8g 8c\	8ee- 8b-\	.	.	([16dddJ [16dd\	.
.	.	.	.	8ddd] 8dd\]	.
16cJk 16G\)	16b-Jk [<16e-\)	.	.	.	.
(16F/LL	(16gLL 16e-/	8e-\]	.	8cccJ 8cc\)	.
16FF/JJ)	16aJJ 16f/)	.	.	.	.
*	*v	*v	*	*	*
=35	=35	=35	=35	=35
!LO:TUP:a	!	!	!	!
(24GG-X\LL	(>16b-LL 16g-X 16d-X/	p	[8bb-L 8b-\	mf
24D-X\	.	.	.	.
.	[16g-JJ [16d- [16B-/	.	.	.
24G-X\JJ	.	.	.	.
!LO:TUP:a	!	!	!	!
24B-\LL	4g-] 4d-] 4B-/])	.	16bb-\L]	.
24d-X\	.	.	.	.
.	.	.	(16dd-X\	.
24g-X\JJ	.	.	.	.
16b-\)	.	.	16ee-\	.
16r	.	.	16een\JJ)	.
!	!	!	!LO:LB:g=original	!
=36	=36	=36	=36	=36
!LO:TUP:a	!	!	!	!
(24FF\LL	(>16ddnLL 16b- 16f/	.	[8ff^\L	.
24Dn\	.	.	.	.
.	[16b-JJ [16f [16d/	.	.	.
24F\JJ	.	.	.	.
!LO:TUP:a	!	!	!	!
24A\LL	4b-] 4f] 4d/])	.	16ff\L]	.
24d\	.	.	.	.
.	.	.	(16ddn\	.
24f\JJ	.	.	.	.
16b-\)	.	.	16cc\	.
16r	.	.	16b-\JJ)	.
=37	=37	=37	=37	=37
!LO:TUP:a	!	!	!	!
(24FF\LL	(>16ddLL 16bn 16a-X/	.	[8ff^\L	.
24D\	.	.	.	.
.	[16bJJ [16a- [16f/	.	.	.
24F\JJ	.	.	.	.
!LO:TUP:a	!	!	!	!
24A-X\LL	4b] 4a-] 4f/])	.	16ff\L]	.
24Bn\	.	.	.	.
.	.	.	(16dd\	.
24d\JJ	.	.	.	.
16f\)	.	.	16cc\	.
16r	.	.	16bn\JJ)	.
!LO:LB:g=original	!	!	!	!
=38	=38	=38	=38	=38
!LO:TUP:a	!	!	!	!
(24FF\LL	(16ee-LL 16cc 16g/	>	16ff\KL	>
24C\	.	.	.	.
.	[16ccJ [16g [16e-/	.	(8ee-\	.
24F\JJ	.	.	.	.
!LO:TUP:a	!	!	!	!
24G\LL	8cc] 8g] 8e-/]	.	.	.
24B-\	.	.	.	.
.	.	.	8dd\	.
[24e-\JJ)	.	.	.	.
8e-] 8F\	8aJ 8f/)	.	.	.
.	.	.	16cc\Jk)	.
!!LO:REH:t=B
=39	=39	=39	=39	=39
*	*^	*	*	*
[4.d [4.B-\	16r	[4.b- [4.f\	pp	[4.b-\	p
.	8bb-L 8b-/	.	.	.	.
.	8bb- 8b-/	.	.	.	.
.	[16bb-Jk [16b-/	.	.	.	.
=40	=40	=40	=40	=40	=40
8d] 8B-\]	16bb-]KL 16b-/]	8b-] 8f\]	.	4b-\]	.
.	8b-/	.	.	.	.
8r	.	8r	.	.	.
.	8b-/	.	.	.	.
8r	.	8r	.	8r	.
.	16b-/Jk	.	.	.	.
=41	=41	=41	=41	=41	=41
!	!LO:TX:a:i:t=espress.	!	!	!LO:TX:a:t=4	!
!	!	!	!	!LO:N:vis=00	!
4.f-X 4.G-X\	([8b-/L	(16a-X\LL	.	1.r	.
.	.	16g-X\	.	.	.
.	16b-/L]	16a-\	.	.	.
.	16cc-X/	16g-\	.	.	.
.	16dd-X/	16b-\	.	.	.
.	16ee-/JJ)	16g-\JJ)	.	.	.
=42	=42	=42	=42	=42	=42
4.e- 4.G-X\	([8cc-X/L	(16a-X\LL	.	.	.
.	.	16g-X\	.	.	.
.	16cc-/L]	16a-\	.	.	.
.	16dd-X/	16g-\	.	.	.
.	16ee-/	16cc-X\	.	.	.
.	16gg-X/JJ)	16b-\JJ)	.	.	.
!LO:LB:g=original	!	!	!	!	!
=43	=43	=43	=43	=43	=43
*^	*	*	*	*	*
(<8d-X/L	4.G-X\	(8ff-X/L	16a-X\LL	.	.	.
.	.	.	16cc-X\	.	.	.
8f-/	.	8dd-X/	16b-\	.	.	.
.	.	.	16a-\	.	.	.
8B-/J)	.	8ee-/J	16g-X\	.	.	.
.	.	.	16f-X\JJ	.	.	.
=44	=44	=44	=44	=44	=44	=44
(<8.c-X/L	4.G-X\	8.cc-X/L	16e-\LL	.	.	.
.	.	.	16a-X\	.	.	.
.	.	.	16g-X\	.	.	.
16d-X/K	.	8a-/	16f-X\	.	.	.
8e-/J)	.	.	16e-\	.	.	.
.	.	16cc-/Jk)	16g-\JJ	.	.	.
*v	*v	*	*	*	*	*
!	!	!	!	!LO:LB:g=original	!
=45	=45	=45	=45	=45	=45
4.f-X 4.G-X\	4b-/	(16a-X\LL	.	([8b-\L	p<
.	.	.	.	.	.
!	!	!	!LO:DY:rj	!	!
.	.	16g-X\	pp<	.	.
.	.	16a-\	.	16b-\L]	.
.	.	16g-\JJ	.	16cc-X\	.
!	!	!LO:TUP:a	!	!	!
.	8b-/	24b-\LL	.	16dd-X\	.
.	.	24a-\	.	.	.
.	.	.	.	16ee-\JJ)	.
.	.	24g-\JJ)	.	.	.
=46	=46	=46	=46	=46	=46
4.e- 4.G-X\	4cc-X/	(16a-X\LL	.	([8cc-X\L	.
.	.	16g-X\	.	.	.
.	.	16a-\	.	16cc-\L]	.
.	.	16g-\JJ	.	16dd-X\	.
!	!	!LO:TUP:a	!	!	!
.	8cc-/	24cc-\LL	.	16ee-\	.
.	.	24b-\	[	.	.
.	.	.	.	16gg-X\JJ)	[[
.	.	24a-\JJ)	.	.	.
=47	=47	=47	=47	=47	=47
!	!	!	!LO:DY:b:rj	!	!
4.e- 4.cn 4.G-X\	4.ccn/	16cc\LL	sf >	(8bb--\L	sf
.	.	(>16b--\	.	.	.
.	.	16a-X\	.	8ccn\	>
.	.	16g-X\	.	.	.
.	.	16b--\	.	8ee-\J)	]]
.	.	16a-\JJ)	]]	.	.
!LO:LB:g=original	!	!	!	!	!
=48	=48	=48	=48	=48	=48
4.d-X 4.G-X\	8dd-X/	(>16f-X\LL	.	(8.dd-X\L	.
.	.	16gn\	.	.	.
.	8ryy	16a-X\	.	.	.
.	.	16ccn\	.	16ee-\K	.
.	8ryy	16dd-X\	.	8ff-X\J)	.
.	.	16cc-X\JJ)	.	.	.
=49	=49	=49	=49	=49	=49
4.f-X 4.G-\	4ff-X/	(16b-\LL	.	(8aa--\L	pp
.	.	16a--\	.	.	.
.	.	16g-X\	.	8b-\	.
.	.	16f-X\	.	.	.
.	8b-/	16a--\	.	8dd-X\J)	.
.	.	[16g-\JJ)	.	.	.
!	!	!	!	!LO:LB:g=original	!
=50	=50	=50	=50	=50	=50
4.e-X 4.G-X\	8cc-X/	(16g-\LL]	.	(8.cc-X\L	.
.	.	16a-X\	.	.	.
.	8ryy	16g-X\	.	.	.
.	.	16b-\	.	16dd-X\K	.
.	8ryy	16cc-X\	.	8ee-\J)	.
.	.	16g-\JJ)	.	.	.
*	*v	*v	*	*	*
=51	=51	=51	=51	=51
*^	*	*	*	*
!	!	!	!LO:DY:b:rj	!	!
(8e-^/	4.G-X\	4.cc-X 4.a-X 4.fnX/	sf	(8ee-^\	sf
4d-X/)	.	.	.	4dd-X\)	.
*v	*v	*	*	*	*
=52	=52	=52	=52	=52
!	!	!	!LO:TX:a:t=1	!
(8a-X^\	(8aa-X^\	.	4.r	.
4d-X\)	4dd-X\)	.	.	.
=53	=53	=53	=53	=53
*^	*	*	*	*
!	!	!	!LO:DY:b:rj	!	!
(8e-^/	4.G-X\	4.cc-X 4.a-X 4.f/	sf	(8ee-^\	.
4dn/)	.	.	.	4ddn\)	.
*v	*v	*	*	*	*
=54	=54	=54	=54	=54
*	*^	*	*	*
!	!	!	!	!LO:TX:a:t=1	!
4.dn 4.c 4.F#X\	(8aan/	4.ddn 4.f#X\	p	4.r	.
!	!LO:TX:b:i:t=poco rit.	!	!	!	!
.	4dd/)	.	.	.	.
!LO:PB:g=original	!	!	!	!	!
=55	=55	=55	=55	=55	=55
*^	*	*	*	*	*
!	!LO:TUP:a:problem:klamra łukowa	!LO:TUP:a:problem:klamra łukowa	!	!	!LO:TX:a:i:t=a tempo	!
4c/	24D\LL	24f#X/LL	4d\	p	([8ff#X\L	mf <
.	24En\	24g/	.	.	.	.
.	24D\J	24f#/J	.	<	.	.
.	8D~>\	8f#~/	.	.	16ff#\L]	.
.	.	.	.	.	16gg\	.
8c/	[8D~>\J	8f#~/J	8d\	.	16aan\	.
.	.	.	.	.	16bbn\JJ)	.
!	!	!	!	!	!LO:LB:g=original	!
=56	=56	=56	=56	=56	=56	=56
*	*	*	*Xtuplet	*	*	*
!LO:TUP:b:problem:klamra łukowa	!	!LO:TUP:a:problem:klamra łukowa	!	!	!	!
24Bn/LL	4D\]	24g/LL	24d\LL	.	([8gg\L	.
24c/	.	24a/	24en\	.	.	.
24B/J	.	24g/J	24d\J	.	.	.
*	*	*	*tuplet	*	*	*
8B/	.	8g/	8d\	.	16gg\L]	.
.	.	.	.	.	16aa\	.
8B/J	[8D\	8g/J	8d\J	[	16bbn\	.
.	.	.	.	.	16ddd\JJ)	[
=57	=57	=57	=57	=57	=57	=57
!LO:TUP:b:problem:klamra łukowa	!	!LO:TUP:a:problem:klamra łukowa	!	!	!	!
24A/LL	4D\]	24cc/LL	4en\	>	(8ccc\L	>
24Bn/	.	24bn/	.	.	.	.
24c/J	.	24a/J	.	.	.	.
8c/	.	8a/	.	.	8aa\	.
8c/J	[8D\	8b/J	8f#X 8d\	]	8bbn\J)	]
=58	=58	=58	=58	=58	=58	=58
*	*	*	*Xbrackettup	*	*	*
!LO:TUP:b:problem:klamra łukowa	!	!	!LO:TUP:b:problem:klamra łukowa	!	!	!
(24Bn/LL	4.D\]	(24g/LL	24d\	.	(8.gg\L	.
24f#X/	.	24dd/	[12g\	.	.	.
24en/J	.	24cc/J	.	.	.	.
16d/L	.	16bn/L	4g\]	.	.	.
16c#X/	.	16a#X/	.	.	16een\K	.
.	.	(<8qcc/	.	.	.	.
16d/	.	16b/)	.	.	8gg\J)	.
16B/JJ)	.	16g/JJ)	.	.	.	.
=59	=59	=59	=59	=59	=59	=59
!	!LO:TUP:a:problem:klamra łukowa	!LO:TUP:a:problem:klamra łukowa	!	!	!	!
4d 4c 4A/	24D\LL	24ff#XLL 24f#X\	4dd 4cc/	.	([8ff#X\L	.
.	24En\	24gg 24g\	.	.	.	.
.	24D\J	24ff#J 24f#\	.	.	.	.
.	8D\	8ff# 8f#\	.	.	16ff#\L]	.
.	.	.	.	.	16gg\	.
8d 8c 8A/	8D\J	8ff#J 8f#\	8dd 8cc/	.	16aa\	.
.	.	.	.	.	16bbn\JJ)	.
*	*	*v	*v	*	*	*
!LO:LB:g=original	!	!	!	!	!
=60	=60	=60	=60	=60	=60
!LO:TUP:b:problem:klamra łukowa	!	!LO:TUP:a:problem:klamra łukowa	!	!	!
24dLL 24Bn 24G/	4.D\	24ggLL 24dd 24bn 24g\	.	([8gg\L	<
24a 24en 24c/	.	24aa 24een 24cc\	.	.	.
24gJ 24d 24B/	.	24ggJ 24dd 24b\	.	.	.
!LO:TX:b:t=cresc.-do:ext=ud:problem:text with extention lines	!	!	!LO:HP:b=2	!	!
8g 8d 8B/	.	8gg 8dd 8b\	<	16gg\L]	.
.	.	.	.	16aa\	.
8gJ 8d 8B/	.	8ggJ 8dd 8b\	.	16bbn\	.
.	.	.	.	16ddd\JJ)	.
!	!	!	!	!LO:LB:g=original	!
=61	=61	=61	=61	=61	=61
!LO:TUP:b:problem:klamra łukowa	!	!LO:TUP:a:problem:klamra łukowa	!	!	!
24dLL 24B-X 24G/	4.D\	24ggLL 24dd 24b-X 24g\	.	([8gg\L	.
24a 24e-X 24c/	.	24aa 24ee-X 24cc\	.	.	.
24gJ 24d 24B-/	.	24ggJ 24dd 24b-\	[	.	.
8g 8d 8B-/	.	8gg 8dd 8b-\	.	16gg\L]	.
.	.	.	.	16aa\	.
8gJ 8d 8B-/	.	8ggJ 8dd 8b-\	.	16bb-X\	.
.	.	.	.	([16ccc#X\JJ)	.
*v	*v	*	*	*	*
=62	=62	=62	=62	=62
4.r	4.r	.	16ccc#\LL]	f
.	.	.	16ddd\JJ	.
.	.	.	16gg\KL)	.
.	.	.	(8ff#X\	.
.	.	.	16gg~\Jk)	.
=63	=63	=63	=63	=63
4.r	4.r	.	(16cc#X\LL	>
.	.	.	16dd\JJ	.
.	.	.	16g/KL)	.
.	.	.	(8f#X/	.
.	.	.	16g~/Jk)	.
=64	=64	=64	=64	=64
16r	16r	.	4dd\	>
(8F#X\L	(>8f#X/L	p	.	.
8G\	8g/	.	.	.
.	.	.	8r	.
[<16C\Jk	[16c/Jk	>	.	.
=65	=65	=65	=65	=65
!	!	!	!LO:TX:a:t=3:mod=	!
!	!	!	!LO:N:vis=0	!
16C/KL]	16c/KL]	.	2.r	.
8C#X/	8c#X/	.	.	.
8D/	8d/	.	.	.
[16FF/Jk	[16F/Jk	.	.	.
!LO:LB:g=original	!	!	!	!
=66	=66	=66	=66	=66
4.FF/]	4.F/]	pp	.	.
=67	=67	=67	=67	=67
4.FF#X/)	4.F#X/)	.	4.r	.
!!LO:REH:t=C
!	!	!	!LO:PB:g=original	!
=68||	=68||	=68||	=68	=68
!	!LO:TX:a:B:t=Un poco più mosso. [eighth] = 66.	!	!LO:TX:a:t=Un poco più mosso. [eighth] = 66.	!
!	!LO:TX:t=P:problem:klamra łukowa w obrębie taktu (?)	!	!LO:TX:a:t=sul G	!
!	!LO:TUP:b	!	!LO:TX:b:i:t=molto espressivo e largamente	!
4B- 4D 4GG\	24r	p	(8d/L	mp
.	24d/LL	.	.	.
.	24dd/JJ	.	.	.
!	!LO:TUP:b	!	!	!
.	24ee-/LL	.	8.b-/	.
.	24dd/	.	.	.
.	24d/JJ	.	.	.
!	!LO:TUP:b	!	!	!
8c 8F#X 8AA\	24r	.	.	.
.	24d/LL	.	.	.
.	.	.	16f#X~/Jk)	.
.	24dd/JJ	.	.	.
=69	=69	=69	=69	=69
!	!LO:TX:t=P:problem:klamra łukowa obejmująca dwie triole (?)	!	!	!
!	!LO:TUP:a	!	!	!
4d 4G 4BB-\	24r	.	(8g^>/L	.
.	24g\LL	.	.	.
.	24gg\JJ	.	.	.
!	!LO:TUP:a	!	!	!
.	24aa\LL	.	8d/)	.
.	24gg\	.	.	.
.	24g\JJ	.	.	.
!	!LO:TUP:a:problem:klamra łukowa	!	!	!
8e- 8A 8C\	24r	.	(16e-/L	.
.	24g\LL	.	.	.
.	.	.	16c/JJ)	.
.	24gg\JJ	.	.	.
=70	=70	=70	=70	=70
!	!LO:TX:t=P:problem:klamra łukowa obejmująca dwie triole (?)	!	!	!
!	!LO:TUP:a	!	!	!
4B- 4D 4GG\	24r	.	(8g^>/L	.
.	24g\LL	.	.	.
.	24gg\JJ	.	.	.
!	!LO:TUP:a	!	!	!LO:HP:a
.	24bb-\LL	.	16d/K)	<
.	24gg\	.	.	[[
!	!	!	!	!LO:HP:a
.	.	.	(8e-/	>
.	24g\JJ	.	.	.
!	!LO:TUP:a:problem:klamra łukowa	!	!	!
8e- 8A 8C\	24r	.	.	.
.	24g\LL	.	.	.
.	.	.	16c/Jk)	]]
.	24gg\JJ	.	.	.
=71	=71	=71	=71	=71
!	!LO:TX:t=P:problem:klamra łukowa w obrębie taktu (?)	!	!	!
!	!LO:TUP:a	!	!	!
4.B- 4.D 4.GG\	24r	.	4.g/	.
.	24g\LL	.	.	.
.	24gg\JJ	.	.	.
!	!LO:TUP:a	!	!	!
.	24bb-\LL	.	.	.
.	24gg\	.	.	.
.	24g\JJ	.	.	.
!	!LO:TUP:a	!	!	!
.	24ddd\LL	.	.	.
.	24gg\	.	.	.
.	24g\JJ	.	.	.
!LO:LB:g=original	!	!	!	!
=72	=72	=72	=72	=72
!	!LO:TX:t=P:problem:klamra łukowa obejmująca dwie triole (?)	!	!	!
!	!LO:TUP:a	!LO:DY:b:rj	!	!
4d 4F 4BB-\	24r	mp	(8f/L	mf
.	24f\LL	.	.	.
.	24ff\JJ	.	.	.
!	!LO:TUP:a	!	!	!
.	24gg\LL	.	8.dd/	.
.	24ff\	.	.	.
.	24f\JJ	.	.	.
!	!LO:TUP:a:problem:klamra łukowa	!	!	!
8e- 8A 8C\	24r	.	.	.
.	24f\LL	.	.	.
.	.	.	16a~/Jk)	.
.	24ff\JJ	.	.	.
=73	=73	=73	=73	=73
!	!LO:TX:t=P:problem:klamra łukowa obejmująca dwie triole (?)	!	!	!
!	!LO:TUP:a	!	!	!
4f 4B- 4D\	24r	.	(8b-^/L	.
.	24b-\LL	.	.	.
.	24bb-\JJ	.	.	.
!	!LO:TUP:a	!	!	!
.	24ccc\LL	.	8f/)	.
.	24bb-\	.	.	.
.	24b-\JJ	.	.	.
!	!LO:TUP:a:problem:klamra łukowa	!	!	!
8g-X 8c 8E-\	24r	.	(16g-X/L	.
.	24b-\LL	.	.	.
.	.	.	16e-/JJ)	.
.	24bb-\JJ	.	.	.
=74	=74	=74	=74	=74
!	!LO:TX:t=P:problem:klamra łukowa obejmująca dwie triole (?)	!	!	!
!	!LO:TUP:a	!	!	!
4f 4B- 4D\	24r	.	(8b-^/L	.
.	24b-\LL	.	.	.
.	24bb-\JJ	.	.	.
!	!LO:TUP:a	!	!	!
.	24ccc\LL	.	16f/K)	<
.	24bb-\	.	.	.
.	.	.	(8g-X/	[>
.	24b-\JJ	.	.	.
!	!LO:TUP:a:problem:klamra łukowa	!	!	!
8g-X 8c 8E-\	24r	.	.	.
.	24b-\LL	.	.	.
.	.	.	16e-/Jk)	]]
.	24bb-\JJ	.	.	.
=75	=75	=75	=75	=75
!	!LO:TX:t=P:problem:klamra łukowa w obrębie taktu (?)	!	!	!
!	!LO:TUP:a	!	!	!
4.d 4.F 4.BB-\	24r	.	4.b-\	.
.	24b-\LL	.	.	.
.	24bb-\JJ	.	.	.
!	!LO:TUP:a	!	!	!
.	24ddd\LL	.	.	.
.	24bb-\	.	.	.
.	24b-\JJ	.	.	.
!	!LO:TUP:a	!	!	!
.	24ff\LL	.	.	.
.	24f\	.	.	.
.	24dd\JJ	.	.	.
*clefG2	*	*	*	*
!LO:LB:g=original	!	!	!LO:LB:g=original	!
=76	=76	=76	=76	=76
*^	*	*	*	*
!	!	!LO:TX:t=P:problem:klamra łukowa obejmująca dwie triole (?)	!	!	!
!LO:TX:a:t=Solo	!	!LO:TUP:a	!LO:DY:rj:b=2	!	!
(8b-/L	4.d\	24r	sf	32r	p
.	.	.	.	(32d/LLL	.
.	.	24cc\LL	.	.	.
.	.	.	.	32a/	.
!LO:TX:a:i:t=espres.	!	!	!	!	!
.	.	24ee-\JJ	.	.	.
.	.	.	.	32cc/JJJ	.
!	!	!LO:TUP:a	!	!	!
16a/L	.	24gg\LL	.	32dd\LLL	.
.	.	.	.	32ff#X\	.
.	.	24ff#X\	.	.	.
16b-/J	.	.	.	32aa\	.
.	.	24dd\JJ	.	.	.
.	.	.	.	32eee-\JJJ	.
!	!	!LO:TUP:a:problem:klamra łukowa	!	!	!
8f#X/J)	.	24r	.	8dddt\)	.
.	.	24cc\LL	.	.	.
.	.	24dd\JJ	.	.	.
=77	=77	=77	=77	=77	=77
!	!	!LO:TX:t=P:problem:klamra łukowa obejmująca dwie triole (?)	!	!	!
!	!	!LO:TUP:a	!LO:DY:rj:b=2	!	!
(8b-/L	4.d\	24r	sf	32r	.
.	.	.	.	(32fff#X\LLL	<
.	.	24b-\LL	.	.	.
.	.	.	.	32ggg\	.
.	.	24dd\JJ	.	.	.
.	.	.	.	32aaa\JJJ	.
!	!	!LO:TUP:a	!	!	!
8a/)	.	24gg\LL	.	32bbb-\LLL	[ sf >
.	.	.	.	32aaa\J	.
.	.	24ee-\	.	.	.
.	.	.	.	16gggT\JJ)	.
.	.	24dd\JJ	.	.	.
!	!	!LO:TUP:a:problem:klamra łukowa	!	!	!
16f#X/L	.	24r	.	32r	.
.	.	.	.	32ddd\LLL	.
.	.	24b-\LL	.	.	.
16g/JJ	.	.	.	32gg\	.
.	.	24dd\JJ	.	.	.
.	.	.	.	32dd\JJJ	.
=78	=78	=78	=78	=78	=78
!	!	!LO:TX:t=P:problem:klamra łukowa obejmująca dwie triole (?)	!	!	!
!	!	!LO:TUP:a	!	!	!
(8fnX/L	4c\	24r	.	32r	.
.	.	.	.	32ccc\LLL	.
.	.	24g\LL	.	.	.
.	.	.	.	32gg\	.
.	.	24gg\JJ	.	.	.
.	.	.	.	32cc\JJJ	.
!	!	!LO:TUP:a	!	!	!
8.g/	.	24ee-\LL	.	32r	.
.	.	.	.	32gg\LLL	.
.	.	24cc\	.	.	.
.	.	.	.	32ee-\	.
.	.	24g\JJ	.	.	.
.	.	.	.	32cc\JJJ	.
!	!	!LO:TUP:a:problem:klamra łukowa	!	!	!
.	8c\	24r	.	8cccT\	]]
.	.	24g\LL	.	.	.
16e-/Jk)	.	.	.	.	.
.	.	24cc\JJ	.	.	.
*v	*v	*	*	*	*
=79	=79	=79	=79	=79
!	!LO:TX:t=P:problem:klamra łukowa w obrębie taktu (?)	!	!	!
4d/	24r	.	32r	.
.	.	.	(32aa\LLL	pp
.	24f#X/LL	.	.	.
.	.	.	32dd\	.
.	24a/JJ	.	.	.
.	.	.	32ddd\JJJ	.
!	!LO:TUP:a	!	!	!
.	24b-\LL	.	32aa\KLL	.
.	.	.	16dd\	.
.	24a\	.	.	.
.	24dd\JJ	.	.	.
.	.	.	32a\JJk	.
!	!	!	!LO:N:vis=32	!
8r	24a/LL	.	16d/)	.
.	24f#/	.	.	.
!	!	!	!LO:N:vis=32	!
.	.	.	16r	.
.	24d/JJ	.	.	.
*clefF4	*	*	*	*
!LO:PB:g=original	!	!	!LO:LB:g=original	!
=80	=80	=80	=80	=80
*^	*	*	*	*
!	!	!LO:TX:t=P:problem:klamra łukowa obejmująca dwie triole (?)	!	!LO:TX:a:t=sul D	!
4d/	4.D\	24r	pp	(8b-/L	mp
.	.	24c/LL	.	.	.
.	.	24e-/JJ	.	.	.
.	.	24g/LL	.	16a/K)	.
.	.	24f#X/	.	.	.
.	.	.	.	(8b-^/	.
.	.	24e-/JJ	.	.	.
!	!	!LO:TUP:a:problem:klamra łukowa	!	!	!
8d/	.	24r	.	.	.
.	.	24c/LL	.	.	.
.	.	.	.	16f#X/Jk)	.
.	.	24a/JJ	.	.	.
=81	=81	=81	=81	=81	=81
!	!	!LO:TX:t=P:problem:klamra łukowa obejmująca dwie triole (?)	!	!	!
4d/	4.D\	24r	.	([8a/L	<
.	.	24B-/LL	<	.	.
.	.	24d/JJ	.	.	.
!	!	!	!	!LO:TUP:b:r=8:num=3	!
!	!	!	!	!LO:TUP:b:problem:klamra łukowa	!
.	.	24g/LL	.	24a/L]	.
.	.	24e-/	.	24g/	.
.	.	24d/JJ	.	24f#X/J)	.
!	!	!LO:TUP:a:problem:klamra łukowa	!	!LO:TUP:b:problem:klamra łukowa	!
8d/	.	24r	[	24f#/L	.
.	.	24B-/LL	.	24g/	.
.	.	24g/JJ	.	24b-~/JJ	[[
=82	=82	=82	=82	=82	=82
!	!	!LO:TX:t=P:problem:klamra łukowa obejmująca dwie triole (?)	!	!	!
4A/	4.D\	24r	.	((8dd/L	>
.	.	24G/LL	>	.	.
.	.	24c/JJ	.	.	.
.	.	24e-/LL	.	16cc/L	.
.	.	24c/	.	.	.
.	.	.	.	16g/)	.
.	.	24G/JJ	]]	.	.
!	!	!LO:TUP:a:problem:klamra łukowa	!	!	!
8A/	.	24r	.	(16g/	.
.	.	24G/LL	.	.	.
.	.	.	.	16cc/JJ))	.
.	.	24e-/JJ	.	.	]]
=83	=83	=83	=83	=83	=83
!	!	!LO:TUP:a:problem:klamra łukowa	!	!	!
24ryy	8AL 8D\	24rf<	.	4a/	.
24ryy	.	24F#X</LL	.	.	.
24ryy	.	24d</JJ	.	.	.
!	!	!LO:TUP:a:problem:klamra łukowa	!	!	!
4ryy	16cL 16C\	24r	.	.	.
.	.	24d/LL	.	.	.
.	16B-J 16BB-\	.	.	.	.
.	.	24ddJJ 24g/	<	.	.
!	!	!LO:TUP:a:problem:klamra łukowa	!	!	!
.	8AJ 8AA\	24r	.	8dd\	<
.	.	24d/LL	.	.	.
.	.	24ddJJ 24cc 24f#X/	.	.	.
*v	*v	*	*	*	*
!LO:LB:g=original	!	!	!	!
!!LO:REH:t=D
=84	=84	=84	=84	=84
4G 4D 4GG/	32r	mp	(8dd\L	mf
.	32b-LLL 32d'/	.	.	.
.	(32b- 32d/	.	.	.
.	32dd 32g/)JJJ	.	.	.
.	(32dd 32g/LLL	.	8bb-\)	.
.	32b- 32d/)	.	.	.
.	(32b- 32d/	.	.	.
.	32ddJJJ 32g/)	.	.	.
!	!	!	!LO:TUP:a:problem:klamra łukowa	!
8G 8D 8GG/	32r	.	24aa^\L	.
.	32ccLLL 32d'/	.	.	.
.	.	.	24ff#X\	.
.	(32cc 32d/	.	.	.
.	.	.	24aa\JJ	.
.	32ddJJJ 32f#X/)	.	.	.
=85	=85	=85	=85	=85
8B- 8D 8GG\	32r	.	(8gg\L	sf
.	32ddLLL 32g'\	.	.	.
.	(32dd 32g\	.	.	.
.	32gg 32b-\)JJJ	.	.	.
8r	(32gg 32b-\LLL	.	16.dd\L)	.
.	32dd 32g\)	.	.	.
.	(32dd 32g\	.	.	.
.	32ggJJJ 32b-\)	.	([32ee-^\JJk	.
8e- 8A 8C\	32r	.	32ee-\LLL]	.
.	32ee-LLL 32g'\	.	32bn\	.
.	(32ee- 32g\	.	32cc\	.
.	32ggJJJ 32cc\)	.	32ee-\JJJ)	.
!	!	!	!LO:LB:g=original	!
=86	=86	=86	=86	=86
4B- 4D 4GG\	32r	.	(16ff#X\KL	sf
.	32ddLLL 32g'\	.	.	.
.	(32dd 32g\	.	8gg\)	.
.	32gg 32b-\)JJJ	.	.	.
.	(32gg 32b-\LLL	.	.	.
.	32dd 32g\)	.	.	.
.	(32dd 32g\	.	([16dd^\Jk	.
.	32ggJJJ 32b-\)	.	.	.
!	!	!	!LO:TUP:a	!
8e- 8A 8C\	32r	.	48dd\LLL]	.
.	.	.	48g\	.
.	32ee-LLL 32g'\	.	.	.
.	.	.	48bn\	.
.	(32ee- 32g\	.	48cc\	.
.	.	.	48dd\	.
.	32ggJJJ 32cc\)	.	.	.
.	.	.	48ee-\JJJ)	.
=87	=87	=87	=87	=87
!	!	!	!LO:TUP:a	!
4.B- 4.D 4.GG\	32r	<	(48ff#X\LLL	<
.	.	.	48gg\	.
.	32ggLLL 32b-'\	.	.	.
.	.	.	48aa\	.
.	(32gg 32b-\	.	48bb-\	.
.	.	.	48ccc#\	.
.	32bb- 32dd\)JJJ	.	.	.
.	.	.	48ddd\JJJ	[
.	(32bb- 32dd\LLL	.	(48fff#X\LLL	>
.	.	[	48ggg\))	.
.	32dd 32g\)	>	.	.
.	.	.	((48ccc#\	.
.	(32dd 32g\	.	48ddd\)	.
.	.	.	(48aa\	.
.	32gg 32b-\)JJJ	.	.	.
.	.	.	48bb-\)JJJ	.
.	(32gg 32b-\LLL	.	48ff#\LLL	.
.	.	.	48gg\	.
.	32b- 32d\)	.	.	.
.	.	.	48bb-\	.
.	(32b- 32d\	.	48aa\	.
.	.	.	48gg\)	.
.	32ddJJJ 32g\)	]]	.	.
.	.	.	([48dd\JJJ	]]
!LO:LB:g=original	!	!	!	!
=88	=88	=88	=88	=88
4B- 4D 4FF\	32r	.	32dd\LLL]	f
.	32ddLLL 32f'\	.	32ee-\	.
!	!LO:TX:b:t=poco a poco cre-scen-do:ext=ud:problem:text with extention lines	!	!	!
.	(32dd 32f\	<	32een\	.
!	!	!	!LO:TX:b:t=poco-a-poco-cresc.:ext=s:problem:text with extention lines	!
.	32ff 32b-\)JJJ	.	[32ff\JJ	<
.	(32ff 32b-\LLL	.	16ff\])L	.
.	32dd 32f\)	.	.	.
.	(32dd 32f\	.	[16ddd\JJ	.
.	32ffJJJ 32b-\)	.	.	.
8A 8E- 8FF/	32r	.	16.ddd\LL]	.
.	32ee-LLL 32f'\	.	.	.
.	(32ee- 32f\	.	.	.
.	32ffJJJ 32a\)	.	32ccc\JJk	.
!	!	!	!LO:LB:g=original	!
=89	=89	=89	=89	=89
4d 4F 4BB-\	32r	.	(16.bb-\LL	.
.	32ffLLL 32b-'\	.	.	.
.	(32ff 32b-\	.	.	.
.	32bb- 32dd\)JJJ	.	[32ff\J	.
.	(32bb- 32dd\LLL	.	32ff\])LL	.
.	32ff 32b-\)	.	(32dd\	.
.	(32ff 32b-\	.	32ee-\	.
.	32bb-JJJ 32dd\)	.	32ff\JJJ	[
8g-X 8c 8E-\	32r	.	32gg-X\LLL	.
.	32gg-XLLL 32b-'\	.	32ee-\	.
.	(32gg- 32b-\	.	32ff\	.
.	32bb-JJJ 32ee-\)	.	32gg-\JJJ	.
=90	=90	=90	=90	=90
4f 4B- 4D\	32r	.	(48bb-/LLL)	.
.	.	.	48A/	.
.	32ffLLL 32b-'\	.	.	.
.	.	.	48B-/	.
.	(32ff 32b-\	.	48d/	.
.	.	.	48f/	.
.	32bb- 32dd\)JJJ	.	.	.
.	.	.	48b-/JJJ	.
.	(32bb- 32dd\LLL	.	48dd/LLL	.
.	.	.	48b-/	.
.	32ff 32b-\)	.	.	.
.	.	.	48f/	.
.	(32ff 32b-\	.	48b-/	.
.	.	.	48dd/	.
.	32bb-JJJ 32dd\)	.	.	.
.	.	.	48ff/JJJ	.
!	!	!	!LO:TR:acc=none	!
8g-X 8c 8E-\	32r	.	8gg-Xt\)	.
.	32gg-XLLL 32b-'\	.	.	.
.	(32gg- 32b-\	.	.	.
.	32bb-JJJ 32ee-\)	.	.	.
!LO:LB:g=original	!	!	!	!
=91	=91	=91	=91	=91
4.d 4.F 4.BB-\	32r	[	4.bb-T\	.
.	32bb-LLL 32dd'\	<	.	.
.	(32bb- 32dd\	.	.	.
.	32ddd 32ff\)JJJ	.	.	.
.	(32ddd 32ff\LLL	.	.	.
.	32ff 32b-\)	.	.	.
.	.	[	.	.
.	(32ff 32b-\	>	.	.
.	32bb- 32dd\)JJJ	.	.	.
.	(32bb- 32dd\LLL	.	.	.
.	32dd 32f\)	.	.	.
.	(32dd 32f\	.	.	.
.	32ffJJJ 32b-\)	]	.	.
=92	=92	=92	=92	=92
*	*^	*	*	*
8DL 8DD\	32r	8bb-L 8b-\	f	([8dddt\	.
.	(<32dd/LLL	.	.	.	.
.	32ff#X/	.	.	.	.
.	32b-/JJJ)	.	.	.	.
!	!	!	!	!LO:TUP:a	!
8d 8c 8D\	32r	16aaK 16a^>\	.	48ddd\LLL]	.
.	.	.	.	48aa\	.
.	32ff# 32dd/	.	.	.	.
.	.	.	.	48ff#X\	.
.	32r	8bb- 8b-^>\	.	48dd\	.
.	.	.	.	48b-\	.
.	(<32dd/LLL	.	.	.	.
.	.	.	.	48f#X\JJJ	.
!	!	!	!	!LO:TUP:a	!
8f#XJ 8c 8A\	32ff#/	.	.	48d\LLL	.
.	.	.	.	48f#\	.
.	32dd/JJJ)	.	.	.	.
.	.	.	.	48b-\	.
!	!	!LO:SIC:v:s=16ff#Jk 16f#^>\	!	!	!
.	32r	16ff#Jk 16f^>\	.	48dd\	.
.	.	.	.	48ff#\	.
.	32dd 32a/	.	.	.	.
.	.	.	.	48aa\JJJ)	.
!	!	!	!	!LO:LB:g=original	!
=93	=93	=93	=93	=93	=93
8DL 8DD\	32r	8.aaL 8.a\	.	([8dddt\	.
.	(32b-/LLL	.	.	.	.
.	32dd/	.	.	.	.
.	32g/	.	.	.	.
!	!	!	!	!LO:TUP:a	!
8B- 8G\	32b-^</	.	.	48ddd\LLL]	.
.	.	.	.	48bb-\	.
.	32dd/JJJ)	.	.	.	.
.	.	.	.	48gg\	.
.	32r	16ggL 16g^>\	.	48dd\	.
.	.	.	.	48b-\	.
.	32dd 32b-/	.	.	.	.
.	.	.	.	48g\JJJ	.
!	!	!	!	!LO:TUP:a	!
8dJ 8B-\	32r	16ff#X 16f#X^>\	.	48d\LLL	.
.	.	.	.	48g\	.
.	32dd 32b-/	.	.	.	.
.	.	.	.	48b-\	.
.	32r	16ggJJ 16g^>\	.	48dd\	.
.	.	.	.	48gg\	.
.	32dd 32b-/	.	.	.	.
.	.	.	.	48bb-\JJJ)	.
!LO:LB:g=original	!	!	!	!	!
=94	=94	=94	=94	=94	=94
8DL 8DD\	32r	8.dddL 8.dd\	<	4gggT\	<
.	(32ee-/LLL	.	.	.	.
.	32gg/	.	.	.	.
.	32cc/	.	.	.	.
8c 8G 8E-\	32ee-^</	.	.	.	.
.	32gg/JJJ)	.	.	.	.
.	32r	16cccL 16cc^>\	.	.	.
.	32gg 32ee-/	.	.	.	.
!	!	!	!	!LO:TUP:a	!
8f#XJ 8c 8D\	32r	16aa 16a^>\	.	(48aaa\LLL	.
.	.	.	.	48aa\	.
.	32ff#X 32dd/	.	.	.	.
.	.	.	.	48aaa\	.
.	32r	16dddJJ 16dd^>\	.	48fff#X\	.
.	.	.	.	48ff#X\	.
.	32aa 32ff#/	.	.	.	.
.	.	.	.	48fff#\JJJ)	.
=95	=95	=95	=95	=95	=95
!	!	!	!	!LO:TUP:a	!
16GG^\LL	32r	16cccLL 16cc^>\	.	(48ggg\LLL	.
.	.	.	.	48gg\	.
.	32gg 32dd/	.	.	.	.
.	.	.	.	48ggg\	.
16D^\	32r	16bb- 16b-^>\	.	48gg\	.
.	.	.	.	48dd\	.
.	32gg 32dd/	.	.	.	.
.	.	.	.	48gg\)JJJ	.
!	!	!	!	!LO:TUP:b	!
16G^\	32r	16aa 16a^>\	.	(48g/LLL	.
.	.	.	.	48G/	.
.	32dd 32b-/	.	.	.	.
.	.	.	.	48g/	.
16B-^\	32r	16gg 16g^>\	.	48gg/	.
.	.	.	.	48g/	.
.	32dd 32b-/	.	.	.	.
.	.	.	.	48dd/)JJJ	.
16G^\	32r	16ddd 16dd^>\	.	(48ddd\LLL	.
.	.	.	.	48dd\	.
.	32bb- 32gg/	.	.	.	.
.	.	.	.	48ddd\)	.
16D^\JJ	32r	16gggJJ 16gg^>\	.	(48ggg\	.
.	.	.	.	48gg\	.
.	32ddd 32bb-/	.	.	.	.
.	.	.	.	48ggg\JJJ)	.
*	*v	*v	*	*	*
!	!	!	!LO:LB:g=original	!
=96	=96	=96	=96	=96
16CLL 16CC'\	16r	ff	16ggg^\LL	ff
16gJJ 16e- 16c 16G'\	16ggg 16eee- 16ccc 16gg'\	.	16fff^\	.
8r	8r	.	16eee-^\	.
.	.	.	16ddd^\	.
8r	8r	.	16eee-^\	.
.	.	.	16ddd^\JJ	.
=97	=97	=97	=97	=97
4.r	4.r	.	16ccc^\LL	.
.	.	.	16bb-^\	.
.	.	.	16aa^\	.
.	.	.	16ccc^\	.
.	.	.	16aa^\	.
.	.	.	16gg^\JJ	.
!LO:PB:g=original	!	!	!	!
=98	=98	=98	=98	=98
16AALL 16AAA'\	16r	f	16gg^\LL	.
16e-JJ 16c 16G'\	16gg 16ee- 16cc 16g'\	.	16ff^\	.
8r	8r	.	16ee-^\	.
.	.	.	16dd^\	.
8r	8r	.	16ee-^\	.
.	.	.	16dd^\JJ	.
=99	=99	=99	=99	=99
4.r	4.r	.	16cc^/LL	.
.	.	.	16b-^/	.
.	.	.	16a^/	.
.	.	.	16cc^/	.
.	.	.	16a^/	.
.	.	.	16g^/JJ	.
=100	=100	=100	=100	=100
*	*	*	*Xtuplet	*
8r	8r	.	([28%5..g/	sf
!	!	!LO:DY:b:rj	!	!
16E- 16EE-'/	16g 16c 16G'/	sf	.	.
16r	16r	.	.	.
8r	8r	.	.	.
.	.	.	32.g/LLL]	.
.	.	.	64g'/JJJk	.
=101	=101	=101	=101	=101
8r	8r	.	[8cc^\L	sf
!	!	!LO:DY:b:rj	!	!
16C 16CC'/	16a 16g 16e- 16A'/	sf	16cc\L]	.
16r	16r	.	(16cc~\	.
8r	8r	.	16b-~\	.
.	.	.	16a~\JJ)	.
!	!	!	!LO:LB:g=original	!
=102	=102	=102	=102	=102
8r	8r	.	([28%5..dd\	sf
!	!	!LO:DY:b:rj	!	!
16F#X 16AA 16DD'/	16dd 16a 16f#X 16d'/	sf	.	.
16r	16r	.	.	.
8r	8r	.	.	.
.	.	.	32.dd\LLL]	.
.	.	.	64dd'\JJJk)	.
!LO:LB:g=original	!	!	!	!
=103	=103	=103	=103	=103
8r	8r	.	([8ee-^\L	sf
16E- 16GG 16CC'/	16ee- 16cc 16g 16e-'/	sf	16ee-\L]	.
16r	16r	.	16ee-~\)	.
8r	8r	.	16cc~\	.
.	.	.	16a~\JJ	.
=104	=104	=104	=104	=104
8r	8r	.	([28%5..dd\	sf
16F#X 16AA 16DD'/	16dd 16a 16f#X 16d'/	sf	.	.
16r	16r	.	.	.
8r	8r	.	.	.
.	.	.	32.dd\LLL]	.
.	.	.	64dd'\JJJk)	.
=105	=105	=105	=105	=105
!	!	!	!	!LO:HP:a
4.r	4.r	.	(16ee-/LL	<
.	.	.	.	[
!	!	!	!	!LO:HP:a
.	.	.	.	>
.	.	.	.	]
.	.	.	16cc/	.
.	.	.	16b-/	.
.	.	.	16a/	.
.	.	.	16g/	.
.	.	.	16f#X/JJ)	.
=106	=106	=106	=106	=106
*	*	*	*	*^
!	!	!	!	!	!LO:HP:a
4.r	4.r	.	(16ffn\LL	>	<
.	.	.	.	.	[
!	!	!	!	!	!LO:HP:a
.	.	.	.	.	>
.	.	.	.	.	]
.	.	.	16ee-\	.	.
.	.	.	16cc\	.	.
.	.	.	16a\	.	.
.	.	.	16g\	.	.
.	.	.	16f#X\JJ)	.	.
*	*	*	*	*v	*v
=107	=107	=107	=107	=107
!	!	!	!	!LO:HP:a
4.r	4.r	.	(16gg\LL	<
.	.	.	.	[
!	!	!	!	!LO:HP:a
.	.	.	.	>
.	.	.	.	]
.	.	.	16ff#X\	.
.	.	.	16ee-\	.
.	.	.	16cc\	.
.	.	.	16b-\	.
.	.	.	16a\JJ)	.
!LO:LB:g=original	!	!	!LO:LB:g=original	!
=108	=108	=108	=108	=108
!	!	!	!	!LO:HP:a
4.r	4.r	.	(16aa\LL	<
.	.	.	.	[
!	!	!	!	!LO:HP:a
.	.	.	.	>
.	.	.	.	]
.	.	.	16gg\	.
.	.	.	16ee-\	.
.	.	.	16cc\	.
.	.	.	16b-\	.
.	.	.	16a\JJ)	.
=109	=109	=109	=109	=109
!	!	!	!	!LO:HP:a
4.r	4.r	.	(16aa\LL	<
.	.	.	.	[
!	!	!	!	!LO:HP:a
.	.	.	.	>
.	.	.	.	]
.	.	.	16gg\	.
!	!	!	!LO:TX:a:i:t=rit.	!
.	.	.	16ee-\	.
.	.	.	16cc\	.
.	.	.	16b-\	.
.	.	.	16a\JJ)	.
!!LO:REH:t=E
=110||	=110||	=110||	=110	=110
!	!LO:TX:a:B:t=Tempo primo.	!	!LO:TX:a:B:t=Tempo I. [eighth] = 58.	!LO:HP:a
8G 8D 8GG/	(8b- 8g 8d 8B-/	p	(16bb-\LL	p<
.	.	.	.	[
!	!	!	!	!LO:HP:a
.	.	.	.	>
.	.	.	.	]
.	.	.	16aa\	.
!	!	!	!	!LO:HP:a
4C 4CC/	4a 4g 4e- 4A/)	.	16gg\	<
.	.	.	.	[
!	!	!	!	!LO:HP:a
.	.	.	.	>
.	.	.	.	]
.	.	.	16ee-\	.
.	.	.	16dd\	.
.	.	.	16cc\JJ)	.
=111	=111	=111	=111	=111
!	!	!	!	!LO:HP:a
8F 8AA 8DD/	(8a 8f 8d 8A/	.	(16aa\LL	<
.	.	.	.	[
!	!	!	!	!LO:HP:a
.	.	.	.	>
.	.	.	.	]
.	.	.	16gg\	.
!	!	!	!	!LO:HP:a
4F 4D 4GG/	4f 4d 4B-/)	.	16ff\	<
.	.	.	.	[
!	!	!	!	!LO:HP:a
.	.	.	.	>
.	.	.	.	]
.	.	.	16dd\	.
.	.	.	16cc\	.
.	.	.	16b-\JJ)	.
=112	=112	=112	=112	=112
*	*^	*	*	*
(8.G\L	(8f/	4B-\	.	(16b-\LL	.
.	.	.	.	16cc\	.
.	4e-/)	.	.	16dd\	.
16G-X\K	.	.	.	16ee-\J)	.
8F\J)	.	8A\	.	8cc\J	.
*	*v	*v	*	*	*
!LO:LB:g=original	!	!	!	!
=113	=113	=113	=113	=113
4F 4BB-\	(8cL 8A/	.	(16ee-\LL	.
.	.	.	16ff\J)	.
.	8d 8B-/	.	(8.dd\	.
8F 8AA-X/	8fJ 8c/)	.	.	.
.	.	.	16ff~\Jk)	.
!	!	!	!LO:LB:g=original	!
=114	=114	=114	=114	=114
*	*^	*	*	*
8DnL 8AA-X/	(16cc/LL	8c\	.	8ff#X\L	.
.	16d/JJ	.	.	.	.
8E- 8GG/	8e-L 8c/	4ryy	.	(8.gg\	.
8FJ 8FF/	8gJ 8d 8Bn/)	.	.	.	.
.	.	.	.	16gg~\Jk)	.
*	*v	*v	*	*	*
=115	=115	=115	=115	=115
(16F-XLL 16FF-X/	(8a-X 8g-X 8c 8A-X/	.	8aa-X~\L	.
16E-J 16EE-/)	.	.	.	.
8D 8DD/	4an 4f#X 4c 4An/)	.	(8.aan\	.
(16C#XL 16CC#X/	.	.	.	.
[16DJJ [16DD/	.	.	16aa~\Jk)	.
=116	=116	=116	=116	=116
*	*^	*	*	*
16D]LL 16DD/]	4b-/	(8fL 8B-\	.	[8bb-\L	.
16EnJJ 16EEn/)	.	.	.	.	.
4Fn 4FFn/	.	8dJ 8B-\)	.	16bb-\K]	.
.	.	.	.	(8ddd\	.
.	8a 8f 8e- 8A/	8ryy	.	.	.
.	.	.	.	16ccc\Jk)	.
*	*v	*v	*	*	*
=117	=117	=117	=117	=117
4G 4GG/	4b- 4g 4d 4B-/	.	(16bb-\LL	.
.	.	.	16gg\)	.
.	.	.	16dd~\	.
.	.	.	16b-~\	.
8r	8r	.	(16a\	.
.	.	.	16g\JJ)	.
!LO:PB:g=original	!	!	!	!
=118	=118	=118	=118	=118
!	!	!	!LO:TX:b:i:t=espress.	!
!	!	!	!LO:TX:a:t=sul G	!
4BB- 4EE-/	4e- 4B- 4G/	p	(8g/	mf
.	.	.	4e-/)	.
8AA/	8e- 8c 8F/	.	.	.
=119	=119	=119	=119	=119
*	*^	*	*	*
4.BB-/	(8c/L	4d 4F\	.	(8f/	.
.	8B-/	.	.	4d/)	.
.	8A/J)	8ryy	.	.	.
*	*v	*v	*	*	*
=120	=120	=120	=120	=120
*^	*	*	*	*
(8G/L	4.BB-\	4e- 4B-/	.	(16B-/LL	<
.	.	.	<	16c/	.
8G-X/	.	.	.	16d/	.
.	.	.	.	16e-/J)	.
8F/J	.	8c 8A/	[[	8c/J	[[
=121	=121	=121	=121	=121	=121
8E-/L	4BB-\	8cL 8A 8F/	.	(8e-/L	.
.	.	.	>	.	.
8D/J)	.	8B- 8F/	.	8d/)	.
8D 8DD/	8ryy	8fJ 8B- 8F/	]	8f/J	.
*v	*v	*	*	*	*
!	!	!	!LO:LB:g=original	!
=122	=122	=122	=122	=122
8E- 8EE-/	8g 8e- 8B- 8G/	.	8g/	.
.	.	.	.	.
.	.	.	.	.
!	!	!	!	!LO:HP:a
4D 4DD/	4f#X 4d 4A/	<	4a/	<
.	.	[	.	[
!	!	!	!	!LO:HP:a
.	.	>	.	>
.	.	]	.	]
!LO:LB:g=original	!	!	!	!
=123	=123	=123	=123	=123
*	*	*^	*	*^
8D 8DD/	8f#X 8d 8A/	<	.	8a/	<	.
!	!	!	!	!	!	!LO:HP:a
4GG 4GGG/	4g 4d 4B-/	.	<	4b-\	.	<
.	.	.	[	.	.	[
!	!	!	!	!	!	!LO:HP:a
.	.	.	>	.	.	>
.	.	.	]	.	.	]
*	*	*	*	*	*v	*v
*	*	*v	*v	*	*
=124	=124	=124	=124	=124
*	*^	*	*	*
[4.FFn [4.FFFn/	8fn 8d 8B-/	8ryy	[	8b-\L	[
.	4f^/	(8e-L 8A\	>	(8.cc^\	.
.	.	8F\J)	.	.	.
.	.	.	.	16b-\Jk)	.
*	*v	*v	*	*	*
=125	=125	=125	=125	=125
(16FF]LL 16FFF/]	4f 4d 4B- 4F/	]	4b-\	.
16AA/	.	.	.	.
16BB-/	.	.	.	.
16D/	.	.	.	.
16En/	[8d [8B-/	.	[8B-/	f
[>16F/JJ)	.	.	.	.
=126	=126	=126	=126	=126
4F\]	8fL 8d] 8B-/]	.	8B-/L]	.
!	!LO:TX:b:i:t=poco rit.	!LO:DY:b:rj	!LO:TX:a:i:t=poco rit.	!
.	8.a 8.f 8.e- 8.A/	sf	(8.c/	sf
8FF/	.	.	.	.
.	16b-Jk 16B-/	.	16B-~/Jk)	.
!LO:LB:g=original	!	!	!	!
=127	=127	=127	=127	=127
!	!	!	!LO:TX:a:i:t=a tempo	!
4.F 4.BB-\	4.b- 4.f 4.d 4.B-/	p	(16B-/LL	p
!	!LO:TX:a:i:t=a tempo	!	!	!
.	.	.	16A/	.
.	.	.	16B-/	.
.	.	.	16d/	.
.	.	.	16en/	.
.	.	.	16f/JJ)	.
=128	=128	=128	=128	=128
4.E- 4.EE-/	4.b- 4.g-X 4.e- 4.B-/	.	(16g-X/LL	.
.	.	.	16a-X/	.
.	.	.	16b-/	.
.	.	.	16an/	.
.	.	.	16b-/	.
.	.	.	16cc/JJ)	.
!	!	!	!LO:LB:g=original	!
=129	=129	=129	=129	=129
!	!	!LO:DY:b:t=sempre piano	!	!LO:DY:a:t=sempre piano
4.D 4.DD/	4.b- 4.f 4.B-/	p	(16dd\LL	p
.	.	.	16an\	.
.	.	.	16b-\	.
.	.	.	16cc#X\	.
.	.	.	16dd\	.
.	.	.	16ff\JJ)	.
=130	=130	=130	=130	=130
4.C 4.CC/	4.b- 4.g-X 4.e- 4.B-/	.	(16gg-X\LL	.
.	.	.	16aa-X\	.
.	.	.	16bb-\	.
.	.	.	16aan\	.
.	.	.	16bb-\	.
.	.	.	16ddd\JJ)	.
=131	=131	=131	=131	=131
8BB- 8BBB-/	8b- 8f 8d 8B-/	.	(8fff\L	>
.	.	>	.	.
8r	8r	.	8aa\	.
8r	8r	.	8bb-\J)	.
!LO:LB:g=original	!	!	!	!
=132	=132	=132	=132	=132
4.r	4.r	.	(8ccc#X\L	.
.	.	.	8ddd\	.
.	.	.	8fff\J)	.
=133	=133	=133	=133	=133
4.BB- 4.BBB-/	4.f 4.d 4.B- 4.F/	pp	[4.bbb-\	pp
=134	=134	=134	=134	=134
!	!	!	!LO:TX:b:i:t=morendo	!
8BB- 8BBB-/	8d 8B- 8F/	.	4.bbb-\_	.
8r	8r	.	.	.
8r	8r	.	.	.
*	*clefF4	*	*	*
=135	=135	=135	=135	=135
!	!LO:TX:b:i:t=morendo	!	!	!
8BB- 8BBB-/	8B- 8F 8D\	.	4.bbb-\_	.
8r	8r	.	.	.
8r	8r	.	.	.
=136	=136	=136	=136	=136
4.EE-/	4.B- 4.G-X 4.C\	<	4.bbb-\_	.
.	.	[	.	.
.	.	>	.	.
.	.	]	.	.
=137	=137	=137	=137	=137
4.BB- 4.FF 4.BBB-;/	4.B- 4.F 4.D;\	ppp	4.bbb-;\]	ppp
==	==	==	==	==
*-	*-	*-	*-	*-
!!!system-decoration: s1{(s2,s3)}
!!!RDF**kern: > = above
!!!RDF**kern: < = below
!!!RDF**kern: N = linked
!!!RDF**dynam: > = "dim.", fontstyle= "italic"
!!!ENC: Berenika Jozajtis
!!!END: 2022-11-29
!!!ENC: Katarzyna Serwa
!!!END: 2022-12-05
